build/img/900-tablet.svg

<svg width="84" height="43" viewBox="0 0 84 43" fill="none" xmlns="http://www.w3.org/2000/svg">
<path d="M16.2383 26.0557C14.5391 27.7926 12.6794 28.6611 10.6592 28.6611C7.52507 28.6611 5.05176 27.4056 3.23926 24.8945C1.44564 22.3646 0.548828 18.9945 0.548828 14.7842C0.548828 12.0654 1.05859 9.58268 2.07812 7.33594C3.09766 5.07031 4.51367 3.31445 6.32617 2.06836C8.15755 0.822266 10.1966 0.199219 12.4434 0.199219C14.7656 0.199219 16.833 0.888346 18.6455 2.2666C20.458 3.64486 21.8646 5.62728 22.8652 8.21387C23.8659 10.7816 24.3662 13.708 24.3662 16.9932V19.9102C24.3662 26.9336 22.818 32.4277 19.7217 36.3926C16.6442 40.3385 12.2734 42.3493 6.60938 42.4248H5.78809V35.5146H6.32617C9.46029 35.4958 11.8109 34.6839 13.3779 33.0791C14.9639 31.4743 15.9173 29.1331 16.2383 26.0557ZM12.6982 22.374C14.2464 22.374 15.4642 21.3167 16.3516 19.2021V15.5205C16.3516 12.8206 15.9834 10.7061 15.2471 9.17676C14.5107 7.62858 13.5573 6.85449 12.3867 6.85449C11.235 6.85449 10.3005 7.61914 9.58301 9.14844C8.88444 10.6589 8.53516 12.5091 8.53516 14.6992C8.53516 17.0781 8.90332 18.9567 9.63965 20.335C10.376 21.6943 11.3955 22.374 12.6982 22.374ZM53.9893 24.9512C53.9893 30.653 52.9508 35.0143 50.874 38.0352C48.8161 41.056 45.8708 42.5664 42.0381 42.5664C38.2432 42.5664 35.3073 41.1032 33.2305 38.1768C31.1725 35.2314 30.1058 31.0212 30.0303 25.5459V17.7578C30.0303 12.0749 31.0592 7.73242 33.1172 4.73047C35.1751 1.70964 38.1299 0.199219 41.9814 0.199219C45.833 0.199219 48.7878 1.69076 50.8457 4.67383C52.9036 7.6569 53.9515 11.9144 53.9893 17.4463V24.9512ZM45.9463 16.5967C45.9463 13.3493 45.6253 10.9137 44.9834 9.29004C44.3415 7.66634 43.3408 6.85449 41.9814 6.85449C39.4326 6.85449 38.111 9.82812 38.0166 15.7754V26.0557C38.0166 29.3786 38.3376 31.8519 38.9795 33.4756C39.6403 35.0993 40.6598 35.9111 42.0381 35.9111C43.3408 35.9111 44.3037 35.1559 44.9268 33.6455C45.5687 32.1162 45.9085 29.7845 45.9463 26.6504V16.5967ZM83.3291 24.9512C83.3291 30.653 82.2907 35.0143 80.2139 38.0352C78.1559 41.056 75.2106 42.5664 71.3779 42.5664C67.583 42.5664 64.6471 41.1032 62.5703 38.1768C60.5124 35.2314 59.4456 31.0212 59.3701 25.5459V17.7578C59.3701 12.0749 60.3991 7.73242 62.457 4.73047C64.515 1.70964 67.4697 0.199219 71.3213 0.199219C75.1729 0.199219 78.1276 1.69076 80.1855 4.67383C82.2435 7.6569 83.2913 11.9144 83.3291 17.4463V24.9512ZM75.2861 16.5967C75.2861 13.3493 74.9652 10.9137 74.3232 9.29004C73.6813 7.66634 72.6807 6.85449 71.3213 6.85449C68.7725 6.85449 67.4508 9.82812 67.3564 15.7754V26.0557C67.3564 29.3786 67.6774 31.8519 68.3193 33.4756C68.9801 35.0993 69.9997 35.9111 71.3779 35.9111C72.6807 35.9111 73.6436 35.1559 74.2666 33.6455C74.9085 32.1162 75.2484 29.7845 75.2861 26.6504V16.5967Z" fill="url(#paint0_linear)"/>
<defs>
<linearGradient id="paint0_linear" x1="-2" y1="2" x2="16.2371" y2="33.256" gradientUnits="userSpaceOnUse">
<stop stop-color="#D10A42"/>
<stop offset="1" stop-color="#0041CA"/>
</linearGradient>
</defs>
</svg>

<svg width="84" height="43" fill="none" xmlns="http://www.w3.org/2000/svg"><path d="M16.238 26.056c-1.699 1.737-3.559 2.605-5.579 2.605-3.134 0-5.607-1.255-7.42-3.767-1.793-2.53-2.69-5.9-2.69-10.11 0-2.719.51-5.201 1.53-7.448C3.097 5.07 4.513 3.314 6.325 2.068 8.158.822 10.196.2 12.443.2c2.323 0 4.39.69 6.202 2.068 1.813 1.378 3.22 3.36 4.22 5.947 1 2.568 1.501 5.494 1.501 8.78v2.916c0 7.024-1.548 12.518-4.644 16.483-3.078 3.946-7.449 5.956-13.113 6.032h-.82v-6.91h.537c3.134-.02 5.485-.831 7.052-2.436 1.586-1.605 2.54-3.946 2.86-7.023zm-3.54-3.682c1.548 0 2.766-1.057 3.654-3.172V15.52c0-2.7-.369-4.814-1.105-6.343-.736-1.548-1.69-2.323-2.86-2.323-1.152 0-2.087.765-2.804 2.294-.699 1.51-1.048 3.361-1.048 5.551 0 2.38.368 4.258 1.105 5.636.736 1.36 1.755 2.039 3.058 2.039zm41.291 2.577c0 5.702-1.038 10.063-3.115 13.084-2.058 3.021-5.003 4.531-8.836 4.531-3.795 0-6.73-1.463-8.807-4.39-2.059-2.945-3.125-7.155-3.2-12.63v-7.788c0-5.683 1.028-10.026 3.086-13.028C35.175 1.71 38.13.2 41.981.2c3.852 0 6.807 1.49 8.865 4.474 2.058 2.983 3.106 7.24 3.143 12.772v7.505zm-8.043-8.354c0-3.248-.32-5.683-.963-7.307-.641-1.624-1.642-2.436-3.002-2.436-2.548 0-3.87 2.974-3.964 8.921v10.28c0 3.324.32 5.797.962 7.42.661 1.624 1.68 2.436 3.06 2.436 1.302 0 2.265-.755 2.888-2.266.642-1.529.981-3.86 1.02-6.995V16.597zM83.33 24.95c0 5.702-1.038 10.063-3.115 13.084-2.058 3.021-5.003 4.531-8.836 4.531-3.795 0-6.73-1.463-8.808-4.39-2.058-2.945-3.124-7.155-3.2-12.63v-7.788c0-5.683 1.03-10.026 3.087-13.028C64.515 1.71 67.47.2 71.321.2c3.852 0 6.807 1.49 8.865 4.474 2.057 2.983 3.105 7.24 3.143 12.772v7.505zm-8.043-8.354c0-3.248-.32-5.683-.963-7.307-.642-1.624-1.642-2.436-3.002-2.436-2.549 0-3.87 2.974-3.965 8.921v10.28c0 3.324.321 5.797.963 7.42.661 1.624 1.68 2.436 3.059 2.436 1.303 0 2.266-.755 2.889-2.266.642-1.529.981-3.86 1.02-6.995V16.597z" fill="url(#paint0_linear)"/><defs><linearGradient id="paint0_linear" x1="-2" y1="2" x2="16.237" y2="33.256" gradientUnits="userSpaceOnUse"><stop stop-color="#D10A42"/><stop offset="1" stop-color="#0041CA"/></linearGradient></defs></svg>
